img/svg/logos/5.svg

<svg width="88" height="33" viewBox="0 0 88 33" fill="none" xmlns="http://www.w3.org/2000/svg">
<path fill-rule="evenodd" clip-rule="evenodd" d="M41.3037 1.22527C41.3037 1.22527 39.7202 -0.726357 39.9833 1.61749C39.9833 1.61749 40.2464 6.56981 39.4571 12.6893L39.06 11.9096C39.06 11.9096 37.6104 10.0856 35.893 10.6054C35.893 10.6054 33.9172 11.2575 32.7259 14.2535C32.7259 14.2535 31.8026 16.4697 32.0657 18.0291C32.0657 18.0291 32.0657 22.197 37.2086 19.2011C37.2086 19.2011 37.7348 18.9412 38.395 18.289C38.2658 18.8088 37.9979 19.2011 37.9979 19.7209C37.9979 19.7209 37.864 20.7652 38.395 21.0251C38.5242 21.1574 38.7921 21.0251 39.1844 19.9855C39.1844 19.9855 42.8777 10.6054 43.0068 6.82499C43.0164 6.82499 44.3368 4.87336 41.3037 1.22527ZM34.9696 18.0291C34.9696 18.0291 34.5726 17.7692 34.5726 16.7249C34.5726 16.7249 34.7017 14.7685 36.0221 13.2091C36.0221 13.2091 36.4192 12.6893 36.6823 12.6893C36.8163 12.5617 36.9454 12.6893 37.0794 13.3414C37.0794 13.469 36.6823 13.469 36.8163 13.9936C36.8163 13.9936 37.6056 15.8176 39.06 15.0379C38.9308 15.2978 38.9308 15.69 38.7969 16.0822C38.0075 17.1171 36.424 19.0735 34.9696 18.0291Z" fill="#757575"/>
<path fill-rule="evenodd" clip-rule="evenodd" d="M13.2073 28.3213C13.4705 28.189 13.6044 27.9291 14.2646 27.6692C14.2646 27.6692 39.1942 19.3335 72.2997 21.0252C72.2997 21.0252 74.1464 20.8976 73.6201 21.8049C73.357 22.1971 72.6968 22.3294 71.6395 22.3294H69.9269C69.9269 22.3294 73.357 23.6337 59.9043 23.369C59.9043 23.369 61.0907 24.541 56.211 24.281C56.211 24.281 42.4952 23.6289 14.7956 28.5813C14.7909 28.5813 12.6811 29.1058 13.2073 28.3213Z" fill="#888888"/>
<path fill-rule="evenodd" clip-rule="evenodd" d="M54.0969 10.473C53.1736 8.78127 52.6474 10.2131 52.6474 10.2131C52.1211 11.7772 48.691 15.5529 48.0308 16.205C45.1317 18.6812 46.1841 17.117 45.921 16.0774C45.921 16.0774 46.0502 13.9935 46.5812 13.6013C46.5812 13.6013 46.8443 13.7336 47.1075 12.5617C47.1075 12.5617 47.7677 10.8699 45.921 10.61C45.921 10.61 44.7346 9.83033 44.2083 12.1742C44.2083 12.1742 43.0219 16.7343 44.4715 18.8182C44.4715 18.8182 45.2608 20.25 49.2172 16.4744H49.088C50.5376 15.1701 52.5182 12.8263 52.5182 12.8263C54.7619 16.7343 51.4657 17.7786 51.4657 17.7786C50.1453 18.5583 51.4657 18.6906 51.4657 18.6906C56.4794 18.8229 56.8717 15.827 56.8717 15.827C57.0008 13.6013 54.0969 10.473 54.0969 10.473ZM49.6143 5.7853C49.7435 5.13318 49.2172 4.48106 48.557 4.35348C47.8968 4.22589 47.3706 4.74569 47.2366 5.5254C47.2366 5.7853 47.2366 6.0452 47.1075 6.43742C47.1075 6.69732 46.8443 7.74165 47.1075 7.86924C47.5045 7.86924 48.4278 7.21713 48.9541 6.95722C49.3512 6.69732 49.6143 6.3051 49.6143 5.7853ZM70.7167 9.95319C70.7167 9.95319 67.1573 15.0331 67.1573 16.8571C67.1573 16.8571 67.0234 18.4213 68.87 18.289C68.87 18.289 70.7167 18.1566 72.0371 17.117C72.0371 17.117 72.8264 16.3373 73.3575 16.205C73.3575 16.205 74.5439 16.3326 74.1468 14.7732C74.1468 14.7732 73.7497 12.9492 73.3575 12.297C73.3575 12.297 72.8312 11.5173 72.4341 11.7772C72.4341 11.7772 71.9079 12.0371 72.0371 12.8168C72.0371 12.8168 72.0371 12.9492 72.3002 13.5965C72.3002 13.5965 72.8264 15.2883 72.5633 15.2883C72.5633 15.2883 72.3002 15.4159 72.1662 15.5482L71.6352 16.068C71.6352 16.068 70.0517 17.1076 70.3148 15.5482C70.3148 15.5482 70.5779 14.6362 70.841 14.1163C70.841 14.1163 71.7644 11.6402 72.6877 10.336C72.6877 10.336 73.611 9.16403 72.4246 9.29162H72.1614C72.1662 9.30107 71.506 8.78127 70.7167 9.95319ZM63.3301 12.1694C62.6699 11.7772 62.0097 10.3454 62.5407 9.69329C62.8039 9.30107 63.2009 9.04117 63.2009 8.65368C63.067 7.74166 61.3543 8.65368 61.0912 9.8256C60.431 11.5173 58.5844 12.5617 58.5844 12.5617C58.3212 12.8216 58.3212 13.4737 58.3212 13.4737C58.1873 14.7779 58.9814 13.8659 58.9814 13.8659C60.1679 12.9539 60.962 12.3018 60.962 12.3018C63.0718 16.3421 59.7756 17.3817 59.7756 17.3817C59.3785 17.514 59.2493 17.6416 59.2493 17.9015C59.2493 18.2937 59.9095 18.2937 59.9095 18.2937C64.9232 18.426 65.3155 15.4253 65.3155 15.4253C65.569 13.9935 64.1195 12.6892 63.3301 12.1694ZM30.6217 18.1614C30.4925 18.0291 29.8323 18.2937 29.1721 18.6812C29.0429 18.8135 28.909 18.8135 28.775 18.9411C28.6459 19.0734 28.378 19.201 28.2488 19.201C28.2488 19.201 27.8517 19.5932 27.8517 18.8088C27.8517 18.6765 27.8517 18.4166 27.9857 18.1566C27.9857 18.1566 28.5119 15.9404 28.775 15.293C28.775 15.293 28.909 14.6409 29.1721 13.8612C29.1721 13.8612 30.0954 12.9492 28.2488 12.5569C28.2488 12.5569 27.4594 10.473 26.4022 13.7289C26.4022 13.469 26.139 12.9492 25.6128 12.6845C25.4788 12.6845 25.3497 12.5569 25.2157 12.5569H24.8186C24.8186 12.5569 24.0293 12.297 23.106 13.469C22.0487 14.5133 19.1496 18.0291 19.8098 20.8974C19.8098 20.8974 20.2068 22.4616 21.5224 22.4616C21.5224 22.4616 23.2351 22.4616 24.6895 21.1573C24.6895 21.1573 25.0865 20.7651 25.4788 20.2453C25.4788 20.5052 25.4788 20.6375 25.6128 20.8974C25.6128 20.8974 25.6128 21.2897 25.8759 21.5496C26.139 21.6819 26.4022 21.9418 26.9332 21.8095H27.1963C27.1963 21.8095 29.0429 21.2897 29.0429 20.5052C28.9138 20.113 29.1721 20.113 29.1721 20.113V19.8531C29.1673 19.8531 30.7508 18.8135 30.6217 18.1614ZM25.2109 19.3333C25.0818 19.5932 24.9478 19.8531 24.5507 20.113C24.5507 20.113 22.441 21.4172 22.441 19.5885C22.441 19.5885 22.5749 18.5489 22.9672 17.6368C22.9672 17.6368 23.8905 15.293 25.3401 13.8564C25.4693 13.7289 25.6032 13.7289 25.6032 13.8564C25.8663 14.1163 25.8663 14.5086 26.0003 14.7685C26.1342 14.7685 26.1342 14.9008 26.1342 14.9008C26.0003 15.8128 25.608 17.5045 25.4741 18.8088C25.4741 18.9411 25.3449 19.2057 25.2109 19.3333ZM10.8349 9.56097C10.7057 9.43338 10.3087 9.56097 9.64847 10.7329C9.64847 10.7329 3.31919 21.1573 2.13275 26.1049C2.13275 26.1049 0.683187 29.4931 2.52982 30.7926C2.52982 30.7926 2.9269 31.4447 3.45314 31.5723C3.58231 32.2244 3.85022 32.8766 4.37646 32.7443C4.63958 32.6119 4.63958 31.9598 4.63958 31.44C4.63958 30.9202 4.63958 30.528 4.76875 30.1358V29.7436C4.76875 29.7436 4.89792 29.6112 4.89792 29.3513C5.55812 27.0075 8.32807 16.0633 10.701 11.5032C10.7057 11.5173 11.232 10.3454 10.8349 9.56097Z" fill="#757575"/>
<path fill-rule="evenodd" clip-rule="evenodd" d="M20.3306 27.1493C20.3306 27.1493 14.9247 19.201 14.3937 17.3769C14.3937 17.3769 14.1305 16.7248 13.7335 16.4649C14.1305 16.4649 14.5228 16.4649 14.9199 16.3373C14.9199 16.3373 17.8238 16.3373 19.0102 14.1211C19.4073 13.6013 19.9336 11.5173 17.5607 8.90885C17.5607 8.90885 14.3937 5.26077 7.40418 4.74096C7.40418 4.74096 5.42837 3.82894 1.86427 6.8249C1.86427 6.8249 0.414704 7.99683 1.20407 8.25673H2.12739C2.12739 8.25673 8.06437 6.3051 15.317 10.473C15.317 10.473 18.2209 12.297 16.5034 13.9888C16.5034 13.9888 15.714 14.7685 13.8674 15.1607C13.8674 15.1607 13.4703 15.1607 12.681 15.293H11.6237C11.6237 15.293 10.8343 15.293 10.8343 15.5529C10.8343 15.6852 10.9683 15.6852 11.3606 15.9451C10.5712 16.0774 10.3033 16.0774 10.0402 16.3373C10.0402 16.3373 9.90623 16.4649 10.0402 16.7295C10.5664 18.0338 12.8101 23.5059 18.0869 27.9337C18.0869 27.9337 21.12 30.2775 21.7802 29.6254C22.0481 29.4978 21.254 28.5811 20.3306 27.1493ZM86.5417 17.117C85.6184 16.5972 83.3746 11.9048 83.3746 11.9048C82.8436 11.1251 81.9251 12.1647 81.9251 12.1647C81.2649 12.5569 80.3416 14.1163 79.9493 15.0284C79.2891 16.0727 79.423 14.7685 79.423 14.7685C79.5522 14.3762 79.6861 13.7289 80.0832 13.4642C80.0832 13.4642 80.3463 13.7241 80.7434 12.5522C80.7434 12.5522 81.4036 10.9881 79.6861 10.6006C79.6861 10.6006 78.4997 9.68856 77.7103 12.0324C77.7103 12.0324 76.6531 15.4206 77.0501 17.5045C77.0501 17.5045 77.3133 19.9807 79.423 18.0243C79.6861 17.892 79.8201 17.5045 80.0832 17.2446C80.4803 16.5925 80.6095 16.3326 81.0065 15.6805C81.5328 14.3762 82.3269 13.3366 82.5901 13.2043C82.4561 14.5086 84.0396 18.2842 84.0396 18.2842C84.6998 20.2359 85.6231 20.1083 85.6231 20.1083C90.3689 20.2453 86.5417 17.117 86.5417 17.117Z" fill="#757575"/>
<path fill-rule="evenodd" clip-rule="evenodd" d="M75.8592 21.1575C76.9165 21.2898 77.969 21.2898 79.5525 21.4174C80.3419 21.5497 81.6623 21.5497 81.7962 22.0695C82.0593 22.5893 81.3991 22.9815 80.3466 23.2414C79.6865 23.369 79.4233 23.5013 78.8971 23.369C78.2369 23.369 77.0504 23.5013 76.9213 22.7169C76.9213 22.3247 76.1319 22.3247 75.6009 22.3247C74.4144 22.3247 74.5484 21.9325 74.8115 21.545C74.9359 21.4174 75.199 21.1575 75.8592 21.1575Z" fill="#898989"/>
<path fill-rule="evenodd" clip-rule="evenodd" d="M28.8694 28.3635H28.3432V30.0552H26.0995V28.3635H25.5732V32.2715H26.0995V30.5798H28.3432V32.2715H28.8694V28.3635ZM30.0607 30.3199C30.0607 31.3595 30.984 32.2715 32.1704 32.2715C33.62 32.2715 34.4141 31.3595 34.4141 30.3199C34.4141 29.1479 33.4908 28.2359 32.3044 28.2359C30.984 28.2312 30.0607 29.2755 30.0607 30.3199ZM30.7161 30.3199C30.7161 29.4078 31.3763 28.7557 32.2996 28.7557C33.089 28.7557 33.7492 29.4078 33.7492 30.3199C33.7492 31.2319 33.089 31.7517 32.2996 31.7517C31.3763 31.7517 30.7161 31.2272 30.7161 30.3199ZM38.2366 28.3635H34.8064V28.8833H36.256V32.2715H36.7822V28.8833H38.2318L38.2366 28.3635ZM41.5328 28.3635H39.2891V32.2715H41.5328V31.7517H39.8201V30.5798H41.4036V30.06H39.8201V28.888H41.5328V28.3635ZM43.2455 28.3635H42.7192V32.2715H45.0921V31.7517H43.2455V28.3635ZM47.996 28.6234C47.7329 28.3635 47.3358 28.2312 47.0727 28.2312C46.2833 28.2312 45.8862 28.751 45.8862 29.2755C45.8862 30.4475 47.5989 30.4475 47.5989 31.3595C47.5989 31.4918 47.3358 31.8793 46.9387 31.8793C46.5417 31.8793 46.1494 31.6194 45.8815 31.2272V32.0069C46.1446 32.2668 46.5417 32.2668 46.9387 32.2668C47.5989 32.2668 48.1252 31.8746 48.1252 31.2224C48.1252 30.0505 46.4125 30.0505 46.4125 29.2708C46.4125 29.0109 46.6756 28.7463 47.0727 28.7463C47.3358 28.7463 47.6037 28.8786 47.996 29.1385V28.6234ZM53.799 30.3199C53.6651 30.5798 53.5359 30.8397 53.2728 30.972L52.7418 30.3199C53.2728 29.9277 53.5311 29.6678 53.5311 29.2755C53.5311 28.751 53.1341 28.3635 52.4787 28.3635C51.9476 28.3635 51.5553 28.7557 51.5553 29.2755C51.5553 29.6678 51.6893 29.9277 51.9524 30.1876C51.4262 30.5798 51.0291 30.9673 51.0291 31.3595C51.0291 31.8793 51.4262 32.2715 52.0864 32.2715C52.3495 32.2715 52.7466 32.1392 53.2728 31.7517L53.799 32.2715H54.4592L53.6699 31.3595C53.933 30.9673 54.1961 30.5798 54.3301 30.3199H53.799ZM52.8757 31.3595C52.6126 31.6194 52.3495 31.7517 52.0864 31.7517C51.8232 31.7517 51.5601 31.6194 51.5601 31.3595C51.5601 31.0996 51.8232 30.8397 52.3495 30.5798L52.8757 31.3595ZM52.0864 29.2755C52.0864 29.0156 52.2203 28.8833 52.4834 28.8833C52.7466 28.8833 53.0097 29.0156 53.0097 29.2755C53.0097 29.5354 52.8757 29.6678 52.4834 29.9277C52.2347 29.8001 52.0816 29.5496 52.0864 29.2755ZM57.4923 28.3635V32.2715H58.1525V30.575H58.2865C58.6835 30.575 58.8175 30.7074 59.3437 31.4871L59.87 32.2668H60.6594C60.2623 31.8746 60.2623 31.747 59.9991 31.4871C59.736 30.9673 59.4729 30.7074 59.2098 30.4427C59.6069 30.1828 59.87 29.9229 59.87 29.4031C59.87 28.751 59.3437 28.3588 58.5496 28.3588L57.4923 28.3635ZM58.1525 28.8833H58.4156C59.0758 28.8833 59.205 29.0156 59.205 29.4079C59.205 29.8001 59.071 30.06 58.4156 30.06H58.1525V28.8833ZM63.8216 28.3635H61.5779V32.2715H63.8216V31.7517H62.1089V30.5798H63.8216V30.06H62.1089V28.888H63.8216V28.3635ZM66.8547 28.6234C66.5915 28.3635 66.3237 28.2312 65.9314 28.2312C65.2712 28.2312 64.7449 28.751 64.7449 29.2755C64.7449 30.4475 66.4576 30.4475 66.4576 31.3595C66.4576 31.4918 66.3236 31.8793 65.7974 31.8793C65.4003 31.8793 65.1372 31.6194 64.7401 31.2272V32.0069C65.1372 32.2668 65.5295 32.2668 65.9266 32.2668C66.5868 32.2668 66.9791 31.8746 66.9791 31.2224C66.9791 30.0505 65.2664 30.0505 65.2664 29.2708C65.2664 29.0109 65.5295 28.7463 65.9266 28.7463C66.1897 28.7463 66.5868 28.8786 66.8499 29.1385V28.6234H66.8547ZM68.0459 30.3199C68.0459 31.3595 68.8353 32.2715 70.1557 32.2715C71.476 32.2715 72.2654 31.3595 72.2654 30.3199C72.2654 29.1479 71.476 28.2359 70.1557 28.2359C68.8353 28.2312 68.0459 29.2755 68.0459 30.3199ZM68.5721 30.3199C68.5721 29.4078 69.2323 28.7557 70.1557 28.7557C71.079 28.7557 71.7392 29.4078 71.7392 30.3199C71.7392 31.2319 71.079 31.7517 70.1557 31.7517C69.2323 31.7517 68.5721 31.2272 68.5721 30.3199ZM73.4519 28.3635V32.2715H74.1121V30.575H74.3752C74.6383 30.575 74.9014 30.7074 75.4324 31.4871L75.9587 32.2668H76.6189C76.3558 31.8746 76.2218 31.747 76.0926 31.4871C75.6956 30.9673 75.5616 30.7074 75.1693 30.4427C75.5664 30.1828 75.8295 29.9229 75.8295 29.4031C75.8295 28.751 75.3033 28.3588 74.5091 28.3588L73.4519 28.3635ZM74.1121 28.8833H74.5091C75.0354 28.8833 75.1693 29.0156 75.1693 29.4079C75.1693 29.8001 75.0354 30.06 74.5091 30.06H74.1121V28.8833ZM80.0443 28.3635H76.6141V28.8833H78.0637V32.2715H78.5899V28.8833H80.0395V28.3635H80.0443ZM82.9482 28.6234C82.685 28.3635 82.4219 28.2312 82.0248 28.2312C81.3647 28.2312 80.8384 28.751 80.8384 29.2755C80.8384 30.4475 82.5511 30.4475 82.5511 31.3595C82.5511 31.4918 82.4171 31.8793 81.8909 31.8793C81.4938 31.8793 81.1015 31.6194 80.8336 31.2272V32.0069C81.2307 32.2668 81.4938 32.2668 82.0201 32.2668C82.6803 32.2668 83.0773 31.8746 83.0773 31.2224C83.0773 30.0505 81.3646 30.0505 81.3646 29.2708C81.3646 29.0109 81.6278 28.7463 82.0248 28.7463C82.288 28.7463 82.5559 28.8786 82.9482 29.1385V28.6234Z" fill="#757575"/>
</svg>

<svg width="88" height="33" viewBox="0 0 88 33" fill="none" xmlns="http://www.w3.org/2000/svg"><path fill-rule="evenodd" clip-rule="evenodd" d="M41.304 1.225s-1.584-1.951-1.32.392c0 0 .262 4.953-.527 11.072l-.397-.78s-1.45-1.823-3.167-1.304c0 0-1.976.652-3.167 3.649 0 0-.923 2.216-.66 3.775 0 0 0 4.168 5.143 1.172 0 0 .526-.26 1.186-.912-.13.52-.397.912-.397 1.432 0 0-.134 1.044.397 1.304.13.132.397 0 .79-1.04 0 0 3.693-9.38 3.822-13.16.01 0 1.33-1.952-1.703-5.6zM34.97 18.03s-.397-.26-.397-1.304c0 0 .129-1.957 1.45-3.516 0 0 .396-.52.66-.52.133-.127.262 0 .396.652 0 .128-.397.128-.263.653 0 0 .79 1.824 2.244 1.044-.13.26-.13.652-.263 1.044-.79 1.035-2.373 2.991-3.827 1.947z" fill="#757575"/><path fill-rule="evenodd" clip-rule="evenodd" d="M13.207 28.321c.263-.132.397-.392 1.058-.652 0 0 24.93-8.335 58.035-6.644 0 0 1.846-.127 1.32.78-.263.392-.923.524-1.98.524h-1.713s3.43 1.305-10.023 1.04c0 0 1.187 1.172-3.693.912 0 0-13.716-.652-41.415 4.3-.005 0-2.115.525-1.589-.26z" fill="#888"/><path fill-rule="evenodd" clip-rule="evenodd" d="M54.097 10.473c-.923-1.692-1.45-.26-1.45-.26-.526 1.564-3.956 5.34-4.616 5.992-2.9 2.476-1.847.912-2.11-.128 0 0 .13-2.084.66-2.476 0 0 .263.133.526-1.04 0 0 .66-1.691-1.186-1.951 0 0-1.186-.78-1.713 1.564 0 0-1.186 4.56.264 6.644 0 0 .789 1.432 4.745-2.344h-.129c1.45-1.304 3.43-3.648 3.43-3.648 2.244 3.908-1.052 4.953-1.052 4.953-1.32.78 0 .912 0 .912 5.013.132 5.406-2.864 5.406-2.864.129-2.226-2.775-5.354-2.775-5.354zm-4.483-4.688c.13-.652-.397-1.304-1.057-1.432-.66-.127-1.186.393-1.32 1.172 0 .26 0 .52-.13.912 0 .26-.263 1.305 0 1.432.398 0 1.32-.652 1.847-.912.397-.26.66-.652.66-1.172zm21.103 4.168s-3.56 5.08-3.56 6.904c0 0-.134 1.564 1.713 1.432 0 0 1.847-.132 3.167-1.172 0 0 .79-.78 1.32-.912 0 0 1.187.128.79-1.432 0 0-.397-1.824-.79-2.476 0 0-.526-.78-.923-.52 0 0-.526.26-.397 1.04 0 0 0 .132.263.78 0 0 .526 1.691.263 1.691 0 0-.263.128-.397.26l-.53.52s-1.584 1.04-1.321-.52c0 0 .263-.912.526-1.432 0 0 .923-2.476 1.847-3.78 0 0 .923-1.172-.263-1.044h-.264c.005.01-.655-.51-1.444.661zM63.33 12.17c-.66-.392-1.32-1.824-.79-2.476.264-.392.66-.652.66-1.04-.133-.911-1.846 0-2.109 1.173-.66 1.691-2.507 2.736-2.507 2.736-.263.26-.263.912-.263.912-.134 1.304.66.392.66.392 1.187-.912 1.981-1.564 1.981-1.564 2.11 4.04-1.186 5.08-1.186 5.08-.398.132-.527.26-.527.52 0 .392.66.392.66.392 5.014.132 5.407-2.869 5.407-2.869.253-1.432-1.197-2.736-1.986-3.256zm-32.708 5.992c-.13-.132-.79.133-1.45.52-.13.133-.263.133-.397.26-.13.132-.397.26-.526.26 0 0-.397.392-.397-.392 0-.133 0-.392.134-.652 0 0 .526-2.217.789-2.864 0 0 .134-.652.397-1.432 0 0 .923-.912-.923-1.304 0 0-.79-2.084-1.847 1.172 0-.26-.263-.78-.79-1.044-.133 0-.262-.128-.396-.128h-.397s-.79-.26-1.713.912c-1.057 1.044-3.956 4.56-3.296 7.428 0 0 .397 1.565 1.712 1.565 0 0 1.713 0 3.168-1.305 0 0 .396-.392.789-.912 0 .26 0 .392.134.652 0 0 0 .393.263.653.263.132.526.392 1.057.26h.263s1.847-.52 1.847-1.305c-.13-.392.13-.392.13-.392v-.26c-.006 0 1.578-1.04 1.449-1.692zm-5.411 1.172c-.13.26-.263.52-.66.78 0 0-2.11 1.304-2.11-.524 0 0 .134-1.04.526-1.952 0 0 .924-2.344 2.373-3.78.13-.128.263-.128.263 0 .263.26.263.652.397.912.134 0 .134.132.134.132-.134.912-.526 2.604-.66 3.908 0 .132-.13.397-.263.524zM10.835 9.561c-.13-.128-.526 0-1.187 1.172 0 0-6.329 10.424-7.515 15.372 0 0-1.45 3.388.397 4.688 0 0 .397.652.923.78.13.651.397 1.304.923 1.171.264-.132.264-.784.264-1.304s0-.912.129-1.304v-.392s.129-.133.129-.393c.66-2.343 3.43-13.288 5.803-17.848.005.014.531-1.158.134-1.942z" fill="#757575"/><path fill-rule="evenodd" clip-rule="evenodd" d="M20.33 27.15s-5.405-7.949-5.936-9.773c0 0-.264-.652-.66-.912.396 0 .789 0 1.186-.128 0 0 2.904 0 4.09-2.216.397-.52.924-2.604-1.45-5.212 0 0-3.166-3.648-10.156-4.168 0 0-1.976-.912-5.54 2.084 0 0-1.45 1.172-.66 1.432h.923s5.937-1.952 13.19 2.216c0 0 2.904 1.824 1.186 3.516 0 0-.789.78-2.636 1.172 0 0-.397 0-1.186.132h-1.057s-.79 0-.79.26c0 .132.134.132.527.392-.79.132-1.058.132-1.32.392 0 0-.135.128 0 .393.525 1.304 2.77 6.776 8.046 11.204 0 0 3.033 2.343 3.693 1.691.268-.127-.526-1.044-1.45-2.476zm66.212-10.033c-.924-.52-3.167-5.212-3.167-5.212-.531-.78-1.45.26-1.45.26-.66.392-1.583 1.951-1.976 2.863-.66 1.045-.526-.26-.526-.26.13-.392.263-1.04.66-1.304 0 0 .263.26.66-.912 0 0 .66-1.564-1.057-1.951 0 0-1.186-.912-1.976 1.431 0 0-1.057 3.389-.66 5.473 0 0 .263 2.476 2.373.52.263-.133.397-.52.66-.78.397-.652.526-.912.924-1.565.526-1.304 1.32-2.343 1.583-2.476-.134 1.305 1.45 5.08 1.45 5.08.66 1.952 1.583 1.824 1.583 1.824 4.746.137.919-2.991.919-2.991z" fill="#757575"/><path fill-rule="evenodd" clip-rule="evenodd" d="M75.86 21.157c1.056.133 2.109.133 3.692.26.79.133 2.11.133 2.244.652.263.52-.397.913-1.45 1.172-.66.128-.923.26-1.449.128-.66 0-1.847.132-1.976-.652 0-.392-.79-.392-1.32-.392-1.187 0-1.053-.392-.79-.78.125-.128.388-.388 1.048-.388z" fill="#898989"/><path fill-rule="evenodd" clip-rule="evenodd" d="M28.87 28.363h-.527v1.692H26.1v-1.692h-.526v3.909h.526V30.58h2.244v1.692h.526v-3.909zm1.19 1.957c0 1.04.924 1.952 2.11 1.952 1.45 0 2.244-.912 2.244-1.952 0-1.172-.923-2.084-2.11-2.084-1.32-.005-2.243 1.04-2.243 2.084zm.656 0c0-.912.66-1.564 1.584-1.564.789 0 1.45.652 1.45 1.564s-.661 1.432-1.45 1.432c-.924 0-1.584-.525-1.584-1.432zm7.52-1.957h-3.43v.52h1.45v3.389h.526v-3.389h1.45l.005-.52zm3.297 0h-2.244v3.909h2.244v-.52H39.82V30.58h1.584v-.52H39.82v-1.172h1.713v-.525zm1.712 0h-.526v3.909h2.373v-.52h-1.846v-3.389zm4.751.26a1.44 1.44 0 00-.923-.392c-.79 0-1.187.52-1.187 1.044 0 1.173 1.713 1.173 1.713 2.085 0 .132-.263.52-.66.52s-.79-.26-1.057-.653v.78c.263.26.66.26 1.057.26.66 0 1.186-.392 1.186-1.045 0-1.172-1.712-1.172-1.712-1.951 0-.26.263-.525.66-.525.263 0 .53.133.923.393v-.516zm5.803 1.697c-.134.26-.263.52-.526.652l-.531-.652c.53-.392.79-.652.79-1.044 0-.525-.398-.913-1.053-.913-.531 0-.924.393-.924.913 0 .392.134.652.397.912-.526.392-.923.78-.923 1.172 0 .52.397.912 1.057.912.264 0 .66-.133 1.187-.52l.526.52h.66l-.79-.912c.264-.393.527-.78.661-1.04h-.53zm-.923 1.04c-.263.26-.526.392-.79.392-.263 0-.526-.133-.526-.392 0-.26.263-.52.79-.78l.526.78zm-.79-2.084c0-.26.134-.393.397-.393.264 0 .527.133.527.393s-.134.392-.527.652a.719.719 0 01-.397-.652zm5.406-.913v3.909h.66v-1.697h.134c.398 0 .532.132 1.058.912l.526.78h.79c-.398-.392-.398-.52-.66-.78-.264-.52-.527-.78-.79-1.044.397-.26.66-.52.66-1.04 0-.652-.526-1.044-1.32-1.044l-1.058.004zm.66.52h.264c.66 0 .789.133.789.525s-.134.652-.79.652h-.262v-1.177zm5.67-.52h-2.244v3.909h2.244v-.52h-1.713V30.58h1.713v-.52h-1.713v-1.172h1.713v-.525zm3.033.26c-.264-.26-.531-.392-.924-.392-.66 0-1.186.52-1.186 1.044 0 1.173 1.713 1.173 1.713 2.085 0 .132-.134.52-.66.52-.398 0-.66-.26-1.058-.653v.78c.397.26.79.26 1.187.26.66 0 1.052-.392 1.052-1.045 0-1.172-1.713-1.172-1.713-1.951 0-.26.263-.525.66-.525.264 0 .66.133.924.393v-.516h.005zm1.19 1.697c0 1.04.79 1.952 2.11 1.952 1.321 0 2.11-.912 2.11-1.952 0-1.172-.789-2.084-2.11-2.084-1.32-.005-2.11 1.04-2.11 2.084zm.527 0c0-.912.66-1.564 1.584-1.564.923 0 1.583.652 1.583 1.564s-.66 1.432-1.583 1.432c-.924 0-1.584-.525-1.584-1.432zm4.88-1.957v3.909h.66v-1.697h.263c.263 0 .526.132 1.057.912l.527.78h.66c-.263-.392-.397-.52-.526-.78-.397-.52-.531-.78-.924-1.044.397-.26.66-.52.66-1.04 0-.652-.526-1.044-1.32-1.044l-1.057.004zm.66.52h.397c.526 0 .66.133.66.525s-.134.652-.66.652h-.397v-1.177zm5.932-.52h-3.43v.52h1.45v3.389h.526v-3.389h1.45v-.52h.004zm2.904.26c-.263-.26-.526-.392-.923-.392-.66 0-1.187.52-1.187 1.044 0 1.173 1.713 1.173 1.713 2.085 0 .132-.134.52-.66.52-.397 0-.79-.26-1.057-.653v.78c.397.26.66.26 1.186.26.66 0 1.057-.392 1.057-1.045 0-1.172-1.712-1.172-1.712-1.951 0-.26.263-.525.66-.525.263 0 .53.133.923.393v-.516z" fill="#757575"/></svg>
